X:15
T:Ganglat e. Skommar Far -- Leksand
R:ganglat
Z:2000 Brian Wilson 
M:4/4
L:1/8
K:A
Ac
|: e2 c2 e2 a2 | efed c2 Bc | d2 dc B2 B2 | efed c2 Ac
|  e2 c2 e2 a2 | efed c2 Bc | d2 dB EGBG | A6 Ac :|
|: e2 e2 f3 f  | efed c2 Bc | d2 dc B2 B2 | efed c2 Ac
|  e2 e2 f3 f  | efed c2 Bc | d2 dB EGBG | A6 Ac :|
